Newaita-dark/actions/24/tools-rip-video-cd.svg

<?xml version="1.0" encoding="UTF-8"?>
<svg xmlns="http://www.w3.org/2000/svg" xmlns:xlink="http://www.w3.org/1999/xlink" width="24pt" height="24pt" viewBox="0 0 24 24" version="1.1">
<g id="surface1">
<path style=" stroke:none;fill-rule:nonzero;fill:rgb(74.117649%,74.117649%,74.117649%);fill-opacity:1;" d="M 11.90625 1.179688 C 5.859375 1.179688 0.992188 6.046875 0.992188 12.09375 L 2.480469 12.09375 C 2.480469 6.871094 6.683594 2.667969 11.90625 2.667969 C 17.128906 2.667969 21.335938 6.871094 21.335938 12.09375 C 21.335938 17.316406 17.128906 21.523438 11.90625 21.523438 L 11.90625 23.011719 C 17.953125 23.011719 22.824219 18.140625 22.824219 12.09375 C 22.824219 6.046875 17.953125 1.179688 11.90625 1.179688 Z M 11.90625 1.179688 "/>
<path style=" stroke:none;fill-rule:nonzero;fill:rgb(47.058824%,56.470591%,61.176473%);fill-opacity:1;" d="M 11.90625 8.125 C 9.707031 8.125 7.9375 9.894531 7.9375 12.09375 C 7.9375 14.292969 9.707031 16.0625 11.90625 16.0625 C 14.105469 16.0625 15.875 14.292969 15.875 12.09375 C 15.875 9.894531 14.105469 8.125 11.90625 8.125 Z M 11.90625 10.109375 C 13.007812 10.109375 13.890625 10.996094 13.890625 12.09375 C 13.890625 13.195312 13.007812 14.078125 11.90625 14.078125 C 10.808594 14.078125 9.921875 13.195312 9.921875 12.09375 C 9.921875 10.996094 10.808594 10.109375 11.90625 10.109375 Z M 11.90625 10.109375 "/>
<path style=" stroke:none;fill-rule:nonzero;fill:rgb(25.882354%,64.705884%,96.078432%);fill-opacity:1;" d="M 11.90625 3.164062 L 11.90625 8.125 C 14.105469 8.125 15.875 9.894531 15.875 12.09375 L 20.839844 12.09375 C 20.839844 7.148438 16.855469 3.164062 11.90625 3.164062 Z M 11.90625 3.164062 "/>
<path style=" stroke:none;fill-rule:evenodd;fill:rgb(25.882354%,64.705884%,96.078432%);fill-opacity:1;" d="M 3.472656 14.574219 C 3.199219 14.578125 2.976562 14.796875 2.976562 15.070312 L 2.976562 21.027344 C 2.976562 21.402344 3.378906 21.640625 3.710938 21.460938 L 9.167969 18.484375 C 9.511719 18.296875 9.511719 17.800781 9.167969 17.613281 L 3.710938 14.636719 C 3.636719 14.597656 3.554688 14.574219 3.472656 14.574219 Z M 3.472656 14.574219 "/>
</g>
</svg>

<svg xmlns="http://www.w3.org/2000/svg" width="32" height="32" viewBox="0 0 24 24"><path d="M11.906 1.18A10.89 10.89 0 0 0 .992 12.094H2.48a9.404 9.404 0 0 1 9.426-9.426 9.408 9.408 0 0 1 9.43 9.426 9.41 9.41 0 0 1-9.43 9.43v1.488a10.896 10.896 0 0 0 10.918-10.918A10.893 10.893 0 0 0 11.906 1.18zm0 0" fill="#bdbdbd"/><path d="M11.906 8.125a3.96 3.96 0 0 0-3.969 3.969 3.96 3.96 0 0 0 3.97 3.969 3.96 3.96 0 0 0 3.968-3.97 3.96 3.96 0 0 0-3.969-3.968zm0 1.984a1.98 1.98 0 0 1 1.985 1.985 1.977 1.977 0 0 1-1.985 1.984 1.98 1.98 0 0 1-1.984-1.984c0-1.098.887-1.985 1.984-1.985zm0 0" fill="#78909c"/><path d="M11.906 3.164v4.961a3.96 3.96 0 0 1 3.969 3.969h4.965a8.913 8.913 0 0 0-8.934-8.93zm0 0" fill="#42a5f5"/><path d="M3.473 14.574a.5.5 0 0 0-.496.496v5.957c0 .375.402.614.734.434l5.457-2.977a.497.497 0 0 0 0-.87l-5.457-2.977a.516.516 0 0 0-.238-.063zm0 0" fill-rule="evenodd" fill="#42a5f5"/></svg>
